src/assets/svg/social/whatsapp.svg

<svg width="22" height="22" viewBox="0 0 22 22" fill="none" xmlns="http://www.w3.org/2000/svg">
    <path fill-rule="evenodd" clip-rule="evenodd"
        d="M10.9967 3.71022e-06C16.9973 -0.00497886 22 5.00914 22 10.9999C22 16.9955 16.9973 21.9947 10.9967 21.9914C9.41983 21.9922 7.8611 21.6547 6.42574 21.0015L0.97973 21.9864C0.835166 22.0129 0.686166 22.0005 0.547952 21.9505C0.409738 21.9006 0.287264 21.8148 0.193045 21.7019C0.098826 21.5891 0.0362381 21.4533 0.0116761 21.3084C-0.0128858 21.1634 0.00145862 21.0145 0.0532439 20.877L1.61399 16.7281C0.562501 15.0018 0.00537336 13.0197 0.0034328 10.9982C0.00509317 5.00748 5.0028 0.00332542 10.9967 3.71022e-06ZM16.5175 15.6718C15.2938 16.6617 13.3993 17.6615 11.5878 16.4989C9.2135 14.9726 7.11147 12.968 5.58725 10.5913C4.69231 9.19948 5.53412 6.97062 6.79268 5.61204C7.29411 5.06894 8.12098 5.1553 8.66724 5.65356L9.81621 6.70322C10.1649 7.0221 10.1782 7.57683 9.96066 7.99869C9.61697 8.65971 9.4144 9.54826 9.83946 10.2109C10.3741 11.0414 11.0316 11.8602 12.6023 12.3368C13.0772 12.483 13.6865 12.4199 14.2046 12.2106C14.6379 12.0346 15.1875 12.0362 15.508 12.3784L16.5772 13.516C17.1667 14.1439 17.1866 15.1304 16.5175 15.6718Z"
        fill="#E8E8E8" style="mix-blend-mode:plus-lighter" />
</svg>

<svg width="22" height="22" fill="none" xmlns="http://www.w3.org/2000/svg"><path fill-rule="evenodd" clip-rule="evenodd" d="M10.997 0C16.997-.005 22 5.01 22 11c0 5.995-5.003 10.995-11.003 10.991-1.577.001-3.136-.336-4.571-.99l-5.446.985a.83.83 0 0 1-.927-1.109l1.561-4.149a11.035 11.035 0 0 1-1.61-5.73C.004 5.008 5.002.003 10.996 0zm5.52 15.672c-1.223.99-3.118 1.99-4.93.827-2.373-1.526-4.476-3.531-6-5.908-.895-1.392-.053-3.62 1.206-4.979.501-.543 1.328-.457 1.874.042l1.15 1.05c.348.318.361.873.144 1.295-.344.66-.547 1.55-.122 2.212.535.83 1.193 1.65 2.763 2.126.475.146 1.085.083 1.603-.126.433-.176.982-.175 1.303.167l1.07 1.138c.589.628.609 1.614-.06 2.156z" fill="#E8E8E8" style="mix-blend-mode:plus-lighter"/></svg>
